X: 10723
T: ZITTI, ZITTI.
C: Rossini
Q: "Allegretto."
%R: march, reel
B: W. Hamilton "Universal Tune-Book" Vol. 1 Glasgow 1844 p.72 #3
S: http://imslp.org/wiki/Hamilton's_Universal_Tune-Book_(Various)
Z: 2016 John Chambers <jc:trillian.mit.edu>
M: 2/4
L: 1/16
K: F
% - - - - - - - - - - - - - - - - - - - - - - - - -
f2 |\
c2A2B2d2 | (cBAG) (F2GA) | B2A2G2F2 | c=Bcd c2f2 |\
c2A2B2d2 | (cBAG) F2(fe) | d2ef G2g2 | c4 z2 :|\
|: cA |\
f2cA f2cA | f2f>ff2c2 |
(fedc) (BAGF) | [c4C4] z2f2 |\
c2A2B2d2 | (cBAG) (F2GA) | B2A2G2F2 | (c=Bcd) c2f2 |\
c2A2B2d2 | (cBAG) (F2GA) | G2AB C2c2 | F4 z2 :|
% - - - - - - - - - - - - - - - - - - - - - - - - -

%%sep 1 1 500
%%sep 1 1 500

